X: 15856
T: Gosson That Bate His Father, The
R: reel
M: 4/4
K: Amixolydian
{/f}g{/a}f|e z {/c}BA eAcA|{/c}BAGA Bc<df|e z {/c}BA eAcA|Bd{/g}ed BAa z|
e z {/c}BA eAcA|{/c}BAGA Bcd z|e{/g}fed BAGA|Be{/g}ed BAa z|
e z {/c}BA eAcA|{/c}BAGA Bc<df|e z {/c}BA eAcA|Bd{/g}ed BAa z|
e ~A3 eAcA|{/c}B ~G3 Bc<d z|e{/g}fed BAGA|Be{/g}ed BAa z||
ABAG EDEF|~G2 BG dGBG|ABAG ~E2 d z|Be{/g}ed BAa z|
ABAG EDEF|~G2 BG dGBG|ABAG ~E2 d z|Be{/g}ed BAa z|
ABAG EDEF|~G2 BG dGBG|ABAG ~E2 d z|Be{/g}ed BAa z||
e ~A3 eAcA|BAGA Bc<d z|e ~A3 eAcA|Be{/g}ed BAa z|
e ~A3 e z cA|B ~G3 Bc<d z|ef{/g}ed BAGA|Be{/g}ed BAa z|
e ~A3 e z cA|BAGA Bc<df|e ~A3 e z BA|Be{/g}ed BAa z|
e ~A3 eAcA|B ~G3 Bcd z|e{/g}fed BAGA|Be{/g}ed BAa z||
ABAG EDEF|~G2 BG dGBG|ABAG ~E2 d z|Be{/g}ed BAa z|
ABAG EDEF|~G2 BG dGBG|ABAG ~E2 d z|Be{/g}ed BAa z|
ABAG EDEF|~G2 BG dGBG|ABAG ~E2 d z|Be{/g}ed BAa z||
e ~A3 e z cA|BAGA Bc<df|e ~A3 e z cA|Be{/g}ed BAa z|
e ~A3 eABA|BGGA Bc<d z|ef{/g}ed BAGA|Be{/g}ed BAa z|
e ~A3 e z cA|BAGA Bc<df|e ~A3 e z BA|Be{/g}ed BAa z|
e ~A3 e z cA|BAGA Bcd z|e{/g}fed BAGA|Be{/g}ed BAa z||

